!!!!SEGMENT: pl-wtm--r-730-26-m_moniuszko-stanislaw--moi-qui-meme-aupres.krn
!!!cenid: 18xx:1706
!!!COM: Moniuszko, Stanisław
!!!COM-rismid: pe30008351
!!!CDT: 1819/05/05-1872/06/04
!!!CNT: Polish
!!!OTL: Moi qui meme aupres
!!!PDT:
!!!AGN: Secular
!!!SMS-siglum: PL-Wtm
!!!SMS-shelfmark: R 730/26/M
!!!SMS-shelfwork: W
!!!SMS-variant:
!!!SMS-altvar:
!!!NIFC-rismid: 1001099838
!!!URL-scan: http://repozytorium.nifc.pl/skany/pl-wtm-nut--r730m-1-43
!!!ONB-nifc: Skan 0030, No. 778
**kern	**kern	**dynam	**kern	**text
*part2	*part2	*part2	*part1	*part1
*staff3	*staff2	*	*staff1	*staff1
*I"Piano	*	*	*I"Soprano	*
*I'P-no	*	*	*I'S.	*
*clefF4	*clefG2	*	*clefG2	*
*k[b-e-]	*k[b-e-]	*	*k[b-e-]	*
*B-:	*B-:	*	*B-:	*
*M2/4	*M2/4	*	*M2/4	*
!	!LO:TX:t=P:problem:all\right:global	!	!	!
8r	(16ccc#X'\LL	p	8r	.
.	16eee-'\JJ)	.	.	.
=1!|:	=1!|:	=1!|:	=1!|:	=1!|:
*2\right	*	*	*	*
*tremolo	*	*	*	*
!	!LO:TX:t=P:problem:all\right:global	!	!	!
8f\ 8d\ 8B-\L	8ddd'\L	.	2r	.
8f\ 8d\ 8B-\	(16aa'\L	.	.	.
.	16ccc'\JJ)	.	.	.
8f\ 8d\ 8B-\	8aa\L	.	.	.
!	!LO:TX:a:t=liquis(si)m(o).	!	!	!
8f\ 8d\ 8B-\J	(16een\L	.	.	.
.	16gg\JJ	.	.	.
*Xtremolo	*	*	*	*
=2	=2	=2	=2	=2
8f\L 8d\ 8B-\	8ff\L)	.	2r	.
8f\J 8d\ 8B-\	(16cc#X\L	.	.	.
.	16ee-\JJ	.	.	.
4f\ 4d\ 4B-\	8dd\L	.	.	.
.	16cc#\L)	.	.	.
.	16dd\JJ	.	.	.
=3	=3	=3	=3	=3
*	*^	*	*	*
8f\L 8e-\ 8c\ 8F\	8ff'/L	8a'\L	.	2r	.
8f\ 8e-\ 8c\ 8F\	8ee-'/	8a'\	.	.	.
8f\ 8e-\ 8c\ 8F\	8cc'/	8a'\	.	.	.
8f\J 8e-\ 8c\ 8F\	8dd'/J	8a'\J	.	.	.
=4	=4	=4	=4	=4	=4
*tremolo	*	*	*	*	*
8f\ 8e-\ 8c\ 8F\L	8ee-/L	8a\L	<	2r	.
8f\ 8e-\ 8c\ 8F\	8ff/	8a\	.	.	.
8f\ 8e-\ 8c\ 8F\	8gg/	8a\	.	.	.
8f\ 8e-\ 8c\ 8F\J	8aa/J	8ff\J	.	.	.
*	*v	*v	*	*	*
*Xtremolo	*	*	*	*
=5	=5	=5	=5	=5
4B-\ 4F\ 4D\ 4BB-\	8bb-\L 8dd\	[ f	2r	.
.	(16een\L	.	.	.
.	16gg\JJ	.	.	.
4B-\ 4F\ 4D\ 4BB-\	8ff\L)	.	.	.
.	(16cc#X\L	.	.	.
.	16ee\JJ	.	.	.
=6	=6	=6	=6	=6
8B-\L 8F\ 8D\ 8BB-\	8dd\L)	.	2r	.
8d\J 8B-\ 8F\	16a\L	.	.	.
.	16cc\JJ	.	.	.
4d\ 4B-\ 4F\	8B-/L	.	.	.
.	(16en^/L	.	.	.
.	16g/JJ	.	.	.
=7	=7	=7	=7	=7
!LO:TX:t=P:problem:mixed beam	!	!	!	!
8FF/L	8f/L)	.	2r	.
8e-\ 8A\	16en/L	.	.	.
.	16f/JJ	.	.	.
8F\	8dd\L	.	.	.
8e-\J 8A\	8ff\J 8cc\	.	.	.
=8	=8	=8	=8	=8
!	!LO:TX:t=P:problem:klamra łukowa	!	!	!
!	!LO:TUP:a	!	!	!
8d\L 8B-\	24b-\LL	.	4r	.
.	24dd\	.	.	.
.	24ff\	.	.	.
8B-\J	24bb-\	.	.	.
.	24ddd\	.	.	.
.	24fff\JJ	.	.	.
!	!LO:TX:b:t=fine.	!	!	!
8BB-/	8bbb-\	.	8r	.
!	!	!	!LO:TX:t=P:problem:all\right:global	!
8r	8r	.	16.d/	Moi
.	.	.	32e-/	qui
=9	=9	=9	=9	=9
8BB-\	8r	pp	8f/	me-
!	!	!	!	!
8r	8d/L 8B-/ 8F</	.	8d/	-me au-
4r	8f/ 8d/ 8B-/	.	8f/	-pres
.	8b-/J 8f/ 8d/	.	8b-\	des
!!LO:LB:g=original
=10	=10	=10	=10	=10
8BB-\	8r	.	(8.dd\L	bel-
8r	8f/L 8d/	.	.	.
.	.	.	16cc\Jk)	.
8r	8d/ 8B-/	.	8b-\	-les
8F\ 8BB-\	8d/J 8B-/	.	16a\	rou
.	.	.	16b-\	drait
=11	=11	=11	=11	=11
8F/L 8AA/	8e-/L 8c/	.	8cc\	rie-
8F/ 8GG#X/	8d/ 8Bn/	.	8f/	-rce
8F/J 8GG#/	8e-/ 8c/	.	8f/	paſ-
8FF^/	8e-/J 8c/ 8A^/	.	8f/	-ta-
=12	=12	=12	=12	=12
2F/ 2BB-/	8r	.	8g/L	-ger
*	*tremolo	*	*	*
.	8d/ 8B-/L	.	16f/L	.
.	.	.	16d/JJ	.
.	8d/ 8B-/	.	8B-/	.
.	8d/ 8B-/J	.	16.f/LL	qui
.	.	.	32e-/JJk	je
*	*Xtremolo	*	*	*
=13	=13	=13	=13	=13
4BB-/	8r	.	8d/	po-
.	8f/L 8d/ 8B-/	.	8f/	-rte in
8B-\L	8b-/ 8f/ 8d/	.	8b-\	sic
8A\J	8cc/J 8f#X/ 8d/	.	8cc\	aux
=14	=14	=14	=14	=14
4G\	8r	.	8.dd\L	ai-
.	8b-/L 8g/ 8d/	.	.	.
.	.	.	16cc\Jk	.
8qGG/	.	.	.	.
8G\L	8b-/ 8g/ 8d/	.	8b-\	-les
8En\J	8b-/J 8g/ 8c/	.	16a\	da
.	.	.	16b-\	l'oi
=15	=15	=15	=15	=15
!LO:TX:t=P:problem:mixed beam	!	!	!	!
8F\L	8a/L 8f/ 8c/	.	8cc\	veau-
16AA/L	16a/L 16f/ 16c/	.	16f/LL	-rit
16BB-/JJ	16g/JJ 16d/ 16B-/	.	16g/JJ	.
8C/L	16f/LL 16A/	.	8.a/	et
.	16c/	.	.	.
8C/J 8CC/	16e-/ 16B-/	.	.	.
.	16c/JJ	.	16g/	le'-
=16	=16	=16	=16	=16
*	*^	*	*	*
*	*	*Xtuplet	*	*	*
8C/ 8FF/	8f/ 8A/	8ryy	.	4f/	-ger
!	!LO:TX:t=P:problem:klamra łukowa	!	!	!	!
8r	24ff/LL 24cc/ 24a/	24f\LL	.	.	.
.	24ff/ 24cc/ 24a/	24f\	.	.	.
.	24ff/JJ 24cc/ 24a/	24f\JJ	.	.	.
4ryy	8ff/ 8cc/ 8a/	8f\	.	8r	.
.	8r	8ryy	.	24a/	Com-
.	.	.	.	24a/	-bruin
.	.	.	.	24b-/	.
*	*v	*v	*	*	*
=17	=17	=17	=17	=17
8F\	8r	.	(8dd\L	d'es-
8r	8f/ 8c/ 8A/	.	8cc\J)	-pa
8F\	8r	.	8f/	ce i-
8r	8f/ 8c/ 8A/	.	8g/	-lri-
=18	=18	=18	=18	=18
2G\	8r	.	4f/	-si-
*	*tremolo	*	*	*
.	8e-/ 8c/ 8B-/L	.	.	.
.	8e-/ 8c/ 8B-/	.	8en/	-te
.	8e-/ 8c/ 8B-/J	.	24g/	a
.	.	.	24g/	rol-
.	.	.	24g/	-ti
*	*Xtremolo	*	*	*
=19	=19	=19	=19	=19
8C/	8r	.	(8cc\L	qui
8r	8e-/ 8c/ 8B-/	.	8b-\J	.
8C/	8r	.	8.dd\	tout
8r	8e-/ 8c/ 8B-/	.	.	.
.	.	.	16cc\)	.
!!LO:LB:g=original
=20	=20	=20	=20	=20
2F\	8r	.	4g#X/	l'in-
.	8f/L 8Bn/ 8G#X/	.	.	.
.	8f/ 8c/ 8A/	.	8b-/	-ri-
.	8f/J 8c/ 8A/	.	16f/	-te:
.	.	.	16g#/	l'ait
=21	=21	=21	=21	=21
8A\L 8F\	8a/L 8c/	.	8a/	ist
8G\ 8En\	8a/ 8c#X/	.	8a/	deux
8F\ 8D\	8a/ 8d/	.	8a/	leci'
8E#X\J 8C\	8a/J 8en/	.	8a/	est
=22	=22	=22	=22	=22
4E-X/ 4C/	8a/L 8f#X/	.	(8a/L	beau
.	8f#/J 8e-/ 8c/	.	16b-/L	.
.	.	.	16a/JJ)	.
4D/ 4BB-/	8r	.	8g/	l'air
.	8g/ 8d/ 8G/	.	8d/	est
=23	=23	=23	=23	=23
8F\	8r	.	8f/	doux
8r	8f/ 8c/ 8A/	.	16en/LL	le
.	.	.	16f/JJ	.
!LO:TX:t=P:problem:mixed beam	!	!	!	!
8G\L	8r	.	16a/LL	cuil
.	.	.	16g/JJ	.
8C/J	8e-/ 8c/ 8B-/	.	16f/LL	est
.	.	.	16e/JJ	.
=24	=24	=24	=24	=24
8r	8r	.	(4f/	beau,
16F\LL	16ff\LL 16cc\ 16a\	.	.	.
16G\JJ	16een\JJ 16b-\	.	.	.
!	!	!	!LO:N:vis=32.	!
8A\	8ee-X\ 8cc\ 8f\	.	16.f/)	.
.	.	.	32e-/	je
8r	8r	.	16.d/	ro-
.	.	.	32e-/	-le-
=25	=25	=25	=25	=25
*tremolo	*tremolo	*	*	*
!	!LO:TX:b:t=liquilissimo.	!	!	!
8F/ 8AA/L	8b-/ 8d/L	p	8f/	-tai
8F/ 8AA/	8b-/ 8d/	.	16.d/	ri-
.	.	.	32d/	-te,
8F/ 8AA/	8b-/ 8d/	.	16.b-/	ri-
.	.	.	32b-/	-te,
8F/ 8AA/J	8b-/ 8d/J	.	16.f/	ri-
.	.	.	32f/	-te,
*Xtremolo	*Xtremolo	*	*	*
=26	=26	=26	=26	=26
8F\L 8BB-\	8b-/L 8d/	.	8.dd\L	ri-
8F\ 8BB-\	8b-/ 8d/	.	.	.
.	.	.	16cc\Jk	-te
8F\J 8BB-\	8b-/J 8d/	.	8b-\	.
8r	16a/LL 16f/	.	16a\	si
.	16b-/JJ 16g/	.	16b-\	je'-
=27	=27	=27	=27	=27
8f\L	8cc\L 8a\	<	(8cc\L	-tais
8f\	8dd\ 8b-\	.	8dd\J)	pu-
8f\	8ee-\ 8cc\	.	8ee-\	-tit
8f\J	8een\J 8cc#X\	.	8een\	oi-
=28	=28	=28	=28	=28
8B-\	8ff\ 8dd\	[ ppp	(4ff\	-sen-
16f\LL 16B-\	16ccc\LL 16bb-\ 16dd\	.	.	.
16f\JJ 16B-\	32aa\L 32dd\	.	.	.
.	32bb-\JJJ	.	.	.
8f\ 8B-\	8ddd\ 8dd\	.	16ff\)	-ni-
.	.	.	16ff\	-je
8r	8r	.	16een\	ro-
.	.	.	16ee-X\	-le-
!!LO:LB:g=original
=29	=29	=29	=29	=29
8B-\L	8dd/L 8b-/ 8f/	.	8dd\	-tuis
8F#X\	8a/ 8e-/ 8c/	.	16.a/	ri-
.	.	.	32a/	-te,
8G\	8b-/ 8d/ 8B-/	.	16.b-/	ri-
.	.	.	32b-/	-te,
8D\J	8f#X/J 8c/ 8A/	.	16.f#X/	ri-
.	.	.	32f#/	-te
=30	=30	=30	=30	=30
4.E-\	8r	.	4a/	ri-
.	8g/L 8B-/ 8G/	.	.	.
.	8g/ 8c/ 8B-/	.	16g/LL	-te
.	.	.	16b-/JJ	.
8En\	8g/J 8c#X/ 8B-/	.	16a/	si
.	.	.	16g/	j'e'-
=31	=31	=31	=31	=31
!	!LO:N:vis=4	!	!	!
4F\	8f/ 8d/	.	8f/	-tais
.	16e-/LL 16c#X/	.	16e-/LL	pu-
.	16f/JJ 16d/	.	16f/JJ	.
!LO:TX:t=P:problem:mixed beam	!	!	!	!
8c\L 8F\	8g/L 8e-/	.	8.dd\	-tit
8FF/J	8a/J 8e-/	.	.	.
.	.	.	16cc\	ri-
=32	=32	=32	=32	=32
8F/ 8BB-/	8b-/ 8d/	.	4b-\	-jeau.
!	!LO:TX:t=P:problem:klamra łukowa	!	!	!
!	!LO:TX:t=P:problem:klamra łukowa	!	!	!
*tuplet	*tuplet	*	*	*
!LO:TUPB:b	!LO:TUB:a	!	!	!
24F/LL 24BB-/	24d/LL 24B-/	.	.	.
24F/ 24BB-/	24d/ 24B-/	.	.	.
24F/JJ 24BB-/	24d/JJ 24B-/	.	.	.
8F/ 8BB-/	8d/ 8B-/	.	4r	.
8r	16ccc#X\LL	.	.	.
!	!LO:TX:b:t=al fine	!	!	!
.	16eee-\JJ	.	.	.
=:|!	=:|!	=:|!	=:|!	=:|!
*-	*-	*-	*-	*-
!!!system-decoration: s1{(s2,s3)}
!!!RDF**kern: > = above
!!!RDF**kern: < = below
!!!EED: Leszek Kubiak
!!!EST: 2021-04-20
!!!ENC: Andrzej Gręziak
!!!END: 2021-04-02
